svgs/sharp-light/quote-left.svg

<svg xmlns="http://www.w3.org/2000/svg" viewBox="0 0 448 512"><!--! Font Awesome Pro 6.6.0 by @fontawesome - https://fontawesome.com License - https://fontawesome.com/license (Commercial License) Copyright 2024 Fonticons, Inc. --><path d="M0 208C0 146.1 50.1 96 112 96l32 0 16 0 0 32-16 0-32 0c-44.2 0-80 35.8-80 80l0 16 128 0 32 0 0 32 0 128 0 32-32 0L32 416 0 416l0-32 0-64 0-64 0-32 0-16zm32 48l0 64 0 64 128 0 0-128L32 256zm384 0l-128 0 0 64 0 64 128 0 0-128zM256 320l0-64 0-32 0-16c0-61.9 50.1-112 112-112l32 0 16 0 0 32-16 0-32 0c-44.2 0-80 35.8-80 80l0 16 128 0 32 0 0 32 0 128 0 32-32 0-128 0-32 0 0-32 0-64z"/></svg>

<svg xmlns="http://www.w3.org/2000/svg" viewBox="0 0 448 512"><!--! Font Awesome Pro 6.4.2 by @fontawesome - https://fontawesome.com License - https://fontawesome.com/license (Commercial License) Copyright 2023 Fonticons, Inc. --><path d="M0 208C0 146.1 50.1 96 112 96h32 16v32H144 112c-44.2 0-80 35.8-80 80v16H160h32v32V384v32H160 32 0V384 320 256 224 208zm32 48v64 64H160V256H32zm384 0H288v64 64H416V256zM256 320V256 224 208c0-61.9 50.1-112 112-112h32 16v32H400 368c-44.2 0-80 35.8-80 80v16H416h32v32V384v32H416 288 256V384 320z"/></svg>
